X: 1132
M: 2/4
L: 1/16
K: D
[|\
f2fe f2g2 | b2a2f4 | a2g2e4 | g2f2d4 |\
f2fe f2g2 | b2a2f4 | a2g2 e2c2 | egfe d2z2 ]
c2cB c2d2 | f2e2c4 | e2d2B4 | d2c2A4 |\
c2cB c2d2 | f2e2c4 | e2d2 B2^G2 | AEcB A2z2 |]

